assets/images/ico_plus.svg

<svg width="35" height="35" viewBox="0 0 35 35" fill="none" xmlns="http://www.w3.org/2000/svg">
<path fill-rule="evenodd" clip-rule="evenodd" d="M16.1875 16.1875H8.30874C7.58452 16.1875 7 16.7751 7 17.5C7 18.2234 7.58594 18.8125 8.30874 18.8125H16.1875V27.1288C16.1875 27.853 16.7751 28.4375 17.5 28.4375C18.2234 28.4375 18.8125 27.8516 18.8125 27.1288V18.8125H27.1288C27.853 18.8125 28.4375 18.2249 28.4375 17.5C28.4375 16.7766 27.8516 16.1875 27.1288 16.1875H18.8125V8.30874C18.8125 7.58452 18.2249 7 17.5 7C16.7766 7 16.1875 7.58594 16.1875 8.30874V16.1875ZM17.5 35C27.165 35 35 27.165 35 17.5C35 7.83502 27.165 0 17.5 0C7.83502 0 0 7.83502 0 17.5C0 27.165 7.83502 35 17.5 35Z" fill="#2EBBE1"/>
</svg>

<svg width="35" height="35" fill="none" xmlns="http://www.w3.org/2000/svg"><path fill-rule="evenodd" clip-rule="evenodd" d="M16.188 16.188h-7.88A1.31 1.31 0 007 17.5c0 .723.586 1.313 1.309 1.313h7.879v8.316a1.31 1.31 0 001.312 1.308c.723 0 1.313-.585 1.313-1.308v-8.317h8.316a1.31 1.31 0 001.308-1.312c0-.723-.585-1.313-1.308-1.313h-8.317V8.31A1.31 1.31 0 0017.5 7c-.723 0-1.313.586-1.313 1.309v7.879zM17.5 35C27.165 35 35 27.165 35 17.5S27.165 0 17.5 0 0 7.835 0 17.5 7.835 35 17.5 35z" fill="#2EBBE1"/></svg>
